X:170
T:The Wild Geese
N:"Slow"
B:O'Neill's 170
Z:Transcribed by henrik.norbeck@mailbox.swipnet.se
M:3/4
L:1/8
K:A
AB|c2 c/4B/4A3/2 A/4B/4c3/2|B2 c/B/A/F/ E2|F2 A2 AB|A4 Bc|
d2 d2 d/4c/4B3/2|c2 c2 c/4B/4A3/2|B2 f2 ec|B4 A/4B/4c3/2|
d2 d2 d/4c/4B3/2|c2 c2 c/4B/4A3/2|Bc .d.c.B.A|F4 AB|
c2 c/4B/4A3/2 A/4B/4c3/2|B2 c/B/A/F/ E2|"#"~FG ABcB|A4 "pp"AB|
dcBABcA|cBAFABF|BAFEFAB|A4 z2|
"cresc."edcBcdB|dcBABcA|B2 f2 ec|B4 A/4B/4c|
"P"dcBcdB|dcBABcA|Bc .d.c.B.A|F4 "pp"AB|
dcBABcA|cBAFABF|BAFEFAB|A7/2 f/ efec|
"ff"""A7/2 "Chorus."f/ efec|A7/2 f/ efec|d2 d'f Tec|d2 d'f efed|
c2 c'f efed|c2 c'f efec|B2 bf efec|B2 bf efec|
d2 d'f efed|c2 c'f efec|B2 bd cdcA|F4 "pp"AB|
c2 c/4B/4A3/2 A/4B/4c3/2|B2 c/B/A/F/ E2|FGAcBc|A2 HA2||
